papirus/32x32/apps/kanatest.svg

<svg height="32" width="32" xmlns="http://www.w3.org/2000/svg"><rect fill="#e9a84a" height="28" rx="1.4" transform="matrix(0 -1 -1 0 0 0)" width="28" x="-30" y="-30"/><path d="m15.533203 3.9804688a1.50015 1.50015 0 0 0 -1.492187 1.171875c0 0-.290898 1.2581992-.607422 3.1191406-.002693-.001168-.00712-.002734-.009766-.0039063.002577.005865.008495.0146408.007813.0175781-.0006.0035283-.001354.008186-.001953.0117188-.01729-.0016593-.05678-.0223994-.140626-.0742188.026833.0165834.098969.0290608.134766.0449219-.025096-.0571083-.176589-.2307766-.257812-.4453125-.129061-.3409091-.203125-.65625-.203125-.65625a1.50015 1.50015 0 0 0 -1.525391-1.1855468 1.50015 1.50015 0 0 0 -1.400391 1.8515624c0 0 .109836.4916074.322266 1.0527344.21243.561127.363724 1.2801064 1.351563 1.8906254.409977.25338.839188.432189 1.277343.566406-.114352.968561-.21419 1.987939-.273437 3.037109-.00693.1223.002044.248262-.003906.371094-.791574.132899-1.580442.279866-2.308594.544922-1.826133.664733-3.4691474 1.803164-4.2714846 3.589844-.3858028.859122-.2854207 1.816416.0234375 2.544922.3088581.728505.7926428 1.310071 1.34375 1.808593 1.1022144.997042 2.4495417 1.719969 3.9628911 1.759766 1.006824.026474 1.919178-.292243 2.791015-.724609.622585 1.097611 1.429703 2.050377 2.628906 2.59375 2.141613.970391 4.439771.094159 6.25-1.158204.905115-.626181 1.703795-1.39472 2.263672-2.326172.559877-.931452.88874-2.113294.546875-3.298828-.533284-1.849351-1.979428-3.162451-3.660156-4.039062.177984-.277621.501953-.767578.501953-.767578a1.5003876 1.5003876 0 1 0 -2.566406-1.552735c0 0-.703236.926109-.896485 1.22461-.957564-.229895-1.951595-.376232-2.953124-.433594-.220449-.012628-.435612.024004-.65625.019531.056543-.995882.151097-1.969038.261718-2.894531.524374-.025117 1.040019-.072894 1.53125-.123047 1.833576-.187202 3.351563-.560547 3.351563-.560547a1.50015 1.50015 0 1 0 -.710938-2.9140622c0 0-1.345989.3269488-2.945312.4902343-.255259.0260611-.518033.0297795-.779297.0390625.284446-1.6426576.539062-2.7246097.539062-2.7246094a1.50015 1.50015 0 0 0 -1.425781-1.8671874zm.664063 13.5292972c.387341.022183.750788.114438 1.130859.167968-.15709.192827-.12109.196778-.287109.390625-.367383.428961-.787062.737652-1.183594 1.140625-.06552-.557398-.145821-1.082494-.167969-1.683593.171467.0035.336402-.025439.507813-.015625zm-3.511719.3125c.052997 1.253611.18824 2.485255.455078 3.644531-.62089.325076-1.193392.543886-1.599609.533203-.371617-.009772-1.411593-.425798-2.0312504-.986328-.3098291-.280265-.5195514-.580848-.59375-.75586-.0741979-.175011-.047295-.143585-.046875-.144531.3603614-.802469 1.2269234-1.514546 2.5605474-2 .373181-.135842.82998-.198337 1.255859-.291015zm7.78125.699218c.111319.050253.255985.077404.361328.13086 1.245854.632209 1.98844 1.424352 2.230469 2.263672.055384.192055.035669.470661-.234375.919922-.270041.44926-.782673.98085-1.400391 1.408203-1.235435.854705-2.834469 1.101733-3.304687.888671-.573571-.259891-1.022169-.855921-1.40625-1.617187.920912-.791394 1.845785-1.606796 2.607421-2.496094.467317-.545645.753091-.981819 1.146485-1.498047z" fill-rule="evenodd" opacity=".4" overflow="visible" transform="matrix(.99999998 0 0 .99999998 .00000003 -.00000003)"/><path d="m3.4003906 2c-.7756 0-1.4003906.6247906-1.4003906 1.4003906v1c0-.7756.6247906-1.4003906 1.4003906-1.4003906h25.1992184c.7756 0 1.400391.6247906 1.400391 1.4003906v-1c0-.7756-.624791-1.4003906-1.400391-1.4003906z" fill="#fff" opacity=".2"/><path d="m2 27.599609v1c0 .7756.6247906 1.400391 1.4003906 1.400391h25.1992184c.7756 0 1.400391-.624791 1.400391-1.400391v-1c0 .7756-.624791 1.400391-1.400391 1.400391h-25.1992184c-.7756 0-1.4003906-.624791-1.4003906-1.400391z" opacity=".3"/></svg>

<?xml version="1.0" encoding="UTF-8" standalone="no"?>
<!-- Created with Inkscape (http://www.inkscape.org/) -->

<svg
   xmlns:dc="http://purl.org/dc/elements/1.1/"
   xmlns:cc="http://creativecommons.org/ns#"
   xmlns:rdf="http://www.w3.org/1999/02/22-rdf-syntax-ns#"
   xmlns:svg="http://www.w3.org/2000/svg"
   xmlns="http://www.w3.org/2000/svg"
   xmlns:sodipodi="http://sodipodi.sourceforge.net/DTD/sodipodi-0.dtd"
   xmlns:inkscape="http://www.inkscape.org/namespaces/inkscape"
   id="svg2817"
   height="32"
   width="32"
   version="1.0"
   inkscape:version="0.91 r13725"
   sodipodi:docname="kanatest.svg">
  <sodipodi:namedview
     pagecolor="#ffffff"
     bordercolor="#666666"
     borderopacity="1"
     objecttolerance="10"
     gridtolerance="10"
     guidetolerance="10"
     inkscape:pageopacity="0"
     inkscape:pageshadow="2"
     inkscape:window-width="1600"
     inkscape:window-height="849"
     id="namedview21"
     showgrid="false"
     inkscape:zoom="14.06"
     inkscape:cx="5.6770889"
     inkscape:cy="14.1958"
     inkscape:window-x="0"
     inkscape:window-y="0"
     inkscape:window-maximized="1"
     inkscape:current-layer="svg2817" />
  <metadata
     id="metadata57">
    <rdf:RDF>
      <cc:Work
         rdf:about="">
        <dc:format>image/svg+xml</dc:format>
        <dc:type
           rdf:resource="http://purl.org/dc/dcmitype/StillImage" />
        <dc:title></dc:title>
      </cc:Work>
    </rdf:RDF>
  </metadata>
  <defs
     id="defs2819" />
  <rect
     style="fill:#e9a84a"
     id="rect4203"
     transform="matrix(0,-1,-1,0,0,0)"
     rx="1.4"
     ry="1.4"
     height="28"
     width="28"
     y="-30"
     x="-30" />
  <g
     id="g4163"
     transform="matrix(0.7,0,0,0.7,1.1001957,-1.3002956)"
     style="opacity:0.4">
    <path
       style="color:#000000;font-style:normal;font-variant:normal;font-weight:normal;font-stretch:normal;font-size:medium;line-height:normal;font-family:sans-serif;text-indent:0;text-align:start;text-decoration:none;text-decoration-line:none;text-decoration-style:solid;text-decoration-color:#000000;letter-spacing:normal;word-spacing:normal;text-transform:none;direction:ltr;block-progression:tb;writing-mode:lr-tb;baseline-shift:baseline;text-anchor:start;white-space:normal;clip-rule:nonzero;display:inline;overflow:visible;visibility:visible;opacity:1;isolation:auto;mix-blend-mode:normal;color-interpolation:sRGB;color-interpolation-filters:linearRGB;solid-color:#000000;solid-opacity:1;fill:#000000;fill-opacity:1;fill-rule:evenodd;stroke:none;stroke-width:4.28571415;stroke-linecap:round;stroke-linejoin:round;stroke-miterlimit:4;stroke-dasharray:none;stroke-dashoffset:0;stroke-opacity:1;color-rendering:auto;image-rendering:auto;shape-rendering:auto;text-rendering:auto;enable-background:accumulate"
       d="M 15.533203 3.9804688 A 1.50015 1.50015 0 0 0 14.041016 5.1523438 C 14.041016 5.1523438 13.750118 6.410543 13.433594 8.2714844 C 13.430901 8.2703164 13.426474 8.2687504 13.423828 8.2675781 C 13.426405 8.2734431 13.432323 8.2822189 13.431641 8.2851562 C 13.431041 8.2886845 13.430287 8.2933422 13.429688 8.296875 C 13.412398 8.2952157 13.372908 8.2744756 13.289062 8.2226562 C 13.315895 8.2392396 13.388031 8.251717 13.423828 8.2675781 C 13.398732 8.2104698 13.247239 8.0368015 13.166016 7.8222656 C 13.036955 7.4813565 12.962891 7.1660156 12.962891 7.1660156 A 1.50015 1.50015 0 0 0 11.4375 5.9804688 A 1.50015 1.50015 0 0 0 10.037109 7.8320312 C 10.037109 7.8320312 10.146945 8.3236386 10.359375 8.8847656 C 10.571805 9.4458926 10.723099 10.164872 11.710938 10.775391 C 12.120915 11.028771 12.550126 11.20758 12.988281 11.341797 C 12.873929 12.310358 12.774091 13.329736 12.714844 14.378906 C 12.707914 14.501206 12.716888 14.627168 12.710938 14.75 C 11.919364 14.882899 11.130496 15.029866 10.402344 15.294922 C 8.576211 15.959655 6.9331966 17.098086 6.1308594 18.884766 C 5.7450566 19.743888 5.8454387 20.701182 6.1542969 21.429688 C 6.463155 22.158193 6.9469397 22.739759 7.4980469 23.238281 C 8.6002613 24.235323 9.9475886 24.95825 11.460938 24.998047 C 12.467762 25.024521 13.380116 24.705804 14.251953 24.273438 C 14.874538 25.371049 15.681656 26.323815 16.880859 26.867188 C 19.022472 27.837579 21.32063 26.961347 23.130859 25.708984 C 24.035974 25.082803 24.834654 24.314264 25.394531 23.382812 C 25.954408 22.45136 26.283271 21.269518 25.941406 20.083984 C 25.408122 18.234633 23.961978 16.921533 22.28125 16.044922 C 22.459234 15.767301 22.783203 15.277344 22.783203 15.277344 A 1.5003876 1.5003876 0 1 0 20.216797 13.724609 C 20.216797 13.724609 19.513561 14.650718 19.320312 14.949219 C 18.362748 14.719324 17.368717 14.572987 16.367188 14.515625 C 16.146739 14.502997 15.931576 14.539629 15.710938 14.535156 C 15.767481 13.539274 15.862035 12.566118 15.972656 11.640625 C 16.49703 11.615508 17.012675 11.567731 17.503906 11.517578 C 19.337482 11.330376 20.855469 10.957031 20.855469 10.957031 A 1.50015 1.50015 0 1 0 20.144531 8.0429688 C 20.144531 8.0429688 18.798542 8.3699176 17.199219 8.5332031 C 16.94396 8.5592642 16.681186 8.5629826 16.419922 8.5722656 C 16.704368 6.929608 16.958984 5.8476559 16.958984 5.8476562 A 1.50015 1.50015 0 0 0 15.533203 3.9804688 z M 16.197266 17.509766 C 16.584607 17.531949 16.948054 17.624204 17.328125 17.677734 C 17.171035 17.870561 17.207035 17.874512 17.041016 18.068359 C 16.673633 18.49732 16.253954 18.806011 15.857422 19.208984 C 15.791902 18.651586 15.711601 18.12649 15.689453 17.525391 C 15.86092 17.528891 16.025855 17.499952 16.197266 17.509766 z M 12.685547 17.822266 C 12.738544 19.075877 12.873787 20.307521 13.140625 21.466797 C 12.519735 21.791873 11.947233 22.010683 11.541016 22 C 11.169399 21.990228 10.129423 21.574202 9.5097656 21.013672 C 9.1999365 20.733407 8.9902142 20.432824 8.9160156 20.257812 C 8.8418177 20.082801 8.8687206 20.114227 8.8691406 20.113281 C 9.229502 19.310812 10.096064 18.598735 11.429688 18.113281 C 11.802869 17.977439 12.259668 17.914944 12.685547 17.822266 z M 20.466797 18.521484 C 20.578116 18.571737 20.722782 18.598888 20.828125 18.652344 C 22.073979 19.284553 22.816565 20.076696 23.058594 20.916016 C 23.113978 21.108071 23.094263 21.386677 22.824219 21.835938 C 22.554178 22.285198 22.041546 22.816788 21.423828 23.244141 C 20.188393 24.098846 18.589359 24.345874 18.119141 24.132812 C 17.54557 23.872921 17.096972 23.276891 16.712891 22.515625 C 17.633803 21.724231 18.558676 20.908829 19.320312 20.019531 C 19.787629 19.473886 20.073403 19.037712 20.466797 18.521484 z "
       transform="matrix(1.4285714,0,0,1.4285714,-1.5717081,1.8575651)"
       id="path4159" />
  </g>
  <path
     style="fill:#ffffff;fill-opacity:1;opacity:0.2"
     d="M 3.4003906 2 C 2.6247906 2 2 2.6247906 2 3.4003906 L 2 4.4003906 C 2 3.6247906 2.6247906 3 3.4003906 3 L 28.599609 3 C 29.375209 3 30 3.6247906 30 4.4003906 L 30 3.4003906 C 30 2.6247906 29.375209 2 28.599609 2 L 3.4003906 2 z "
     id="rect4290" />
  <path
     style="fill:#000000;fill-opacity:1;opacity:0.3"
     d="M 2 27.599609 L 2 28.599609 C 2 29.375209 2.6247906 30 3.4003906 30 L 28.599609 30 C 29.375209 30 30 29.375209 30 28.599609 L 30 27.599609 C 30 28.375209 29.375209 29 28.599609 29 L 3.4003906 29 C 2.6247906 29 2 28.375209 2 27.599609 z "
     id="rect4295" />
</svg>
